X:1
T:March
T:March
T:The Nutcracker, Piano Arrangement for 3 hands
T:Hinci
C:Hinci
%%score { ( 1 4 ) | ( 2 5 ) | ( 3 6 ) }
L:1/8
Q:1/4=136
M:4/4
K:G
V:1 treble nm="Piano" snm="Pno."
V:4 treble 
V:2 bass 
V:5 bass 
V:3 bass 
V:6 bass 
V:1
"^Tempo di marcia viva"!p! [GBd] z (3[GBd][GBd][GBd] [GBe] z [GBe] z | [FBf] z [GBd] z!mf! [GBe]4 | %2
!p! [GBd] z (3[GBd][GBd][GBd] [GBe] z [GBe] z | [FBf] z [GBd] z!mf! [GBe]3 z/!mp! (E/ | %4
 c) z/ (d/ c) z/ (B/ A) z/ (G/ F) z/ (D/ | B) z/ (c/ B) z/ (A/ G) z/ (F/ E) z/ (G/ | %6
!<(! F) z/ (E/ ^D) z/ (A/ G) z/ (F/ E) z/ (B/!<)! | %7
!mf! c) z/ (B/ A) z/ (G/ d) (a/4b/4c'/4^c'/4 [dfad']) z | %8
 [GBd] z (3[GBd][GBd][GBd] [GBe] z [GBe] z | [FBf] z [GBd] z!mf! [GBe]4 | %10
!p! [GBd] z (3[GBd][GBd][GBd] [GBe] z [GBe] z | [FBf] z [GBd] z!mf! [GBe]3 z/!mp! (E/ | %12
 c) z/ (d/ c) z/ (B/ A) z/ (G/ F) z/ (A/ |"_cresc." d) z/ (e/ d) z/ (c/ B) z/ (A/ G) z/ (B/ | %14
 e) z/ (d/ c) z/ (e/ f) z/ (e/ d) z/ (f/ | g) z/ (f/ e) z/ (f/!f! ^d) (f/4g/4a/4^a/4 [Bdfb]) z | %16
!mf! [B,^DB] z (3[B,DB][B,DB][B,DB] [B,EG] z [G,B,E] z | z4 z2{/^a} [eb] z | %18
{/f} [Bg] z{/^d} [Be] z{/B} [Ec] z{/^G} [EA] z |{/B} [Fc] z{/^d} [ce] z{/^e} [Bf] z{/^a} [db] z | %20
 [B,^DB] z (3[B,DB][B,DB][B,DB] [B,EG] z [G,B,E] z | z4 z .c.B.A | %22
 .G.[Ff].[Ee].[Dd] .[Cc].[B,B].[A,A].[G,G] | %23
[K:treble]!mf!!<(!{/^c} [DAd] z{/^e} [FAf] z!<)!!f!{/^c'} [fd'] z!>(! (3[A=cd][Acd][Acd]!>)! | %24
 [GBd] z (3[GBd][GBd][GBd] [GBe] z [GBe] z | [FBf] z [GBd] z!mf! [GBe]4 | %26
!p! [GBd] z (3[GBd][GBd][GBd] [GBe] z [GBe] z | [FBf] z [GBd] z!mf! [GBe]3 z/!mp! (E/ | %28
 c) z/ (d/ c) z/ (B/ A) z/ (G/ F) z/ (D/ | B) z/ (c/ B) z/ (A/ G) z/ (F/ E) z/ (G/ | %30
!<(! F) z/ (E/ ^D) z/ (A/ G) z/ (F/ E) z/ (B/!<)! | %31
!mf! c) z/ (B/ A) z/ (G/ d) (a/4b/4c'/4^c'/4 [dfad']) z | %32
 [GBd] z (3[GBd][GBd][GBd] [GBe] z [GBe] z | [FBf] z [GBd] z!mf! [GBe]4 | %34
!p! [GBd] z (3[GBd][GBd][GBd] [GBe] z [GBe] z | [FBf] z [GBd] z!mf! [GBe]3 z/!mp! E/ | %36
 c z/ (d/ c) z/ (B/ A) z/ (G/ F) z/ (A/ |"_cresc." d) z/ (e/ d) z/ (c/ B) z/ (A/ G) z/ (B/ | %38
 e) z/ (d/ c) z/ (e/ f) z/ (e/ d) z/ (f/ | %39
 g) z/ (f/ e) z/ (f/!f! [Bdg]) (d'/4e'/4^e'/4f'/4!ff! [gbd'g']) z || %40
!mf! .g'/.g'/.g'/.g'/ .f'/.e'/.d'/.c'/ .b/.b/.b/.b/ .b/.c'/.b/.c'/ | %41
 .a/.a/.a/.a/ .a/.b/.a/.b/ .g/.a/.f/.g/ .e/.f/.^d/.e/ | %42
 .g/.g/.g/.g/ .f/.e/.d/.c/ .B/.B/.B/.B/ .B/.c/.B/.c/ | %43
 .A/.A/.A/.A/ .A/.B/.A/.B/ .G/.A/.F/.G/ .[Ee]/.[Gg]/.[Bb]/.[ee']/ | %44
 .g'/.g'/.g'/.g'/ .f'/.e'/.d'/.c'/ .b/.b/.b/.b/ .b/.c'/.b/.c'/ | %45
 .a/.a/.a/.a/ .a/.b/.a/.b/ .g/.a/.f/.g/ .e/.f/.^d/.e/ | %46
 .g/.g/.g/.g/ .f/.e/.d/.c/ .B/.B/.B/.B/ .B/.c/.B/.c/ | .A/.A/.A/.A/ .A/.B/.A/.B/ .G/.A/.F/.G/ z2 | %48
 [GBd] z (3[GBd][GBd][GBd] [GBe] z [GBe] z | [FBf] z [GBd] z [GBe]4 | %50
!mf! [GBd] z (3[GBd][GBd][GBd] [GBe] z [GBe] z | [FBf] z [GBd] z [GBe]3 z/ (e/ | %52
 [ac']>)(d' [ac']>)(b [fa]>)(g [df]>)(d | [gb]>)(c' [gb]>)(a [eg]>)(f [ce]>)(g | %54
!<(! [df]>)(e [B^d]>)(a [eg]>)(f [^ce]>)(b!<)! | %55
!f! [ac']>)(b [fa]>)(g [ad']) (a/4b/4c'/4^c'/4!ff! [dfad']) z | %56
!mf! [GBd] z (3[GBd][GBd][GBd] [GBe] z [GBe] z | [FBf] z [GBd] z [GBe]4 | %58
!mf! [GBd] z (3[GBd][GBd][GBd] [GBe] z [GBe] z | [FBf] z [GBd] z [GBe]3 z/ e/ | %60
 [ac']>(d' [ac']>)(b [fa]>)(g [df]>)(a | [bd']>)(e' [bd']>)(c' [gb]>)(a [eg]>)(b | %62
"_cresc." [c'e']>)(d' [ac']>)(e' [d'f']>)(e' [bd']>)(f' | %63
 [e'g']>)(f' [c'e']>)(f' [b^d']) (g/4^g/4a/4^a/4!ff! [B^dfb]) z | %64
!mf! [B,^DB] z (3[B,DB][B,DB][B,DB] [B,EG] z [G,B,E] z | z4 z2{/^a} [eb] z | %66
{/f} [Bg] z{/^d} [Be] z{/B} [Ec] z{/^G} [EA] z |{/B} [Fc] z{/^d} [ce] z{/^e} [Bf] z{/^a} [db] z | %68
 [B,^DB] z (3[B,DB][B,DB][B,DB] [B,EG] z [G,B,E] z | z4 z .c.B.A | %70
 .G.[Ff].[Ee].[Dd] .[Cc].[B,B].[A,A].[G,G] | %71
[K:treble]!mf!!<(!{/^c} [DAd] z{/^e} [FAf] z!<)!!f!{/^c'} [fd'] z!>(! (3[A=cd][Acd][Acd]!>)! | %72
 [GBd] z (3[GBd][GBd][GBd] [GBe] z [GBe] z | [FBf] z [GBd] z [GBe]4 | %74
!mf! [GBd] z (3[GBd][GBd][GBd] [GBe] z [GBe] z | [FBf] z [GBd] z [GBe]3 z/ (e/ | %76
 [ac']>)(d' [ac']>)(b [fa]>)(g [df]>)(d | [gb]>)(c' [gb]>)(a [eg]>)(f [ce]>)(g | %78
!<(! [df]>)(e [B^d]>)(a [eg]>)(f [^ce]>)(b!<)! | %79
!f! [ac']>)(b [fa]>)(g [ad']) (a/4b/4c'/4^c'/4!ff! [dfad']) z | %80
!mf! [GBd] z (3[GBd][GBd][GBd] [GBe] z [GBe] z | [FBf] z [GBd] z [GBe]4 | %82
!mf! [GBd] z (3[GBd][GBd][GBd] [GBe] z [GBe] z | [FBf] z [GBd] z [GBe]3 z/ e/ | %84
 [ac']>(d' [ac']>)(b [fa]>)(g [df]>)(a | [bd']>)(e' [bd']>)(c' [gb]>)(a [eg]>)(b | %86
"_cresc." [c'e']>)(d' [ac']>)(e' [d'f']>)(e' [bd']>)(f' | %87
 [e'g']>)(f' [c'e']>)(f' !arpeggio![gbd'g']) z!ff! [GBdg] z |] %88
V:2
 z8 | z8 | z8 | z8 |!pp! A,,^G,, A,,B,, C,^C, D,F,, | G,,F,, G,,A,, ^A,,B,, C,E,, | %6
!<(! A,,^A,, B,,C, ^C,^D, E,G,!<)! |!mp! A,B, C^C [F,A,D] z z2 | z8 | z8 | z8 | z8 | %12
!pp! A,,^G,, A,,B,, C,^C, D,=C, |"_cresc." B,,^A,, B,,C, D,^D, E,=D, | C,B,, A,,C, D,C, B,,D, | %15
 E,G, A,^A,!mf! [F,B,] z z2 | z8 | [E,G,A,C] z [C,E,A,] z [B,,^D,F,]2 .^C,.D, | %18
 .E,.F,.G,.^G, .A,.B,.C.B, | .A,.G,.F,.E, .^D,.^C,.B,, z | z8 | %21
 [E,G,A,C] z [C,E,A,] z [B,,^D,F,]2{/=D,} [F,,B,,^D,] z | %22
!<(!{/^D,} [B,,E,] z{/^A,} [E,B,] z[K:treble]{/^D} [=A,E] z!<)!!mf!{/^G} [EA] z | %23
[K:bass]!>(! .[F,F].[E,E].[D,D].[C,C] .[B,,B,].[A,,A,].[G,,G,]!>)!!mp!.[F,,F,] | z8 | z8 | z8 | %27
 z8 |!pp! A,,^G,, A,,B,, C,^C, D,F,, | G,,F,, G,,A,, ^A,,B,, C,E,, | %30
!<(! A,,^A,, B,,C, ^C,^D, E,G,!<)! |!mp! A,B, C^C [F,A,D] z z2 | z8 | z8 | z8 | z8 | %36
!pp! A,,^G,,A,,B,, C,^C,D,=C, |"_cresc." B,,^A,,B,,C, D,^D,E,=D, | C,B,,A,,C, D,E,F,D, | %39
 B,,B,A,D,!mp! [B,,D,G,] z G z ||!mp! .[G,E].[G,E].[G,E].[G,E] .[G,E].[G,E].[^G,E].[G,E] | %41
 .[A,E].[A,E].[F,E].[F,E] .[G,E].[G,E].[F,E].[F,E] | .E,.E,.E,.E, .[E,G,].[E,G,].[E,^G,].[E,G,] | %43
 .[E,A,].[E,A,].[E,A,].[E,A,] .[E,B,].[E,B,].[E,B,].E, | %44
 .[G,E].[G,E].[G,E].[G,E] .[G,E].[G,E].[^G,E].[G,E] | %45
 .[A,E].[A,E].[F,E].[F,E] .[G,E].[G,E].[F,E].[F,E] | .E,.E,.E,.E, .[E,G,].[E,G,].[E,^G,].[E,G,] | %47
 .[E,A,].[E,A,].[E,A,].[E,A,] .[E,B,].[E,B,]!mf! .E/.F/.G/.B/ | %48
[K:bass] [D,G,] z (3[D,G,][D,G,][D,G,] E, z E, z | [B,,F,] z [D,G,] z [B,,E,]4 | %50
 [D,G,] z (3[D,G,][D,G,][D,G,] E, z E, z | [B,,F,] z [D,G,] z [B,,E,]4 | %52
!mp! [A,,,A,,][^G,,,^G,,][A,,,A,,][B,,,B,,] [C,,C,][^C,,^C,][D,,D,][F,,,F,,] | %53
 [G,,,G,,][F,,,F,,][G,,,G,,][A,,,A,,] [^A,,,^A,,][B,,,B,,][C,,C,][E,,,E,,] | %54
!<(! [A,,,A,,][^A,,,^A,,][B,,,B,,][C,,C,] [^C,,^C,][^D,,^D,][E,,E,][G,,G,]!<)! | %55
!mf! [A,,A,][B,,B,][C,C][^C,^C] [D,D] z [A,DFA] z | [D,G,] z (3[D,G,][D,G,][D,G,] E, z E, z | %57
 [B,,F,] z [D,G,] z [B,,E,]4 | [D,G,] z (3[D,G,][D,G,][D,G,] E, z E, z | %59
 [B,,F,] z [D,G,] z [B,,E,]4 | %60
!mp! [A,,,A,,][^G,,,^G,,] [A,,,A,,][B,,,B,,] [C,,C,][^C,,^C,] [D,,D,][=C,,=C,] | %61
 [B,,,B,,][^A,,,^A,,] [B,,,B,,][C,,C,] [D,,D,][^D,,^D,] [E,,E,][=D,,=D,] | %62
"_cresc." [C,,C,][B,,,B,,] [A,,,A,,][C,,C,] [D,,D,][C,,C,] [B,,,B,,][D,,D,] | %63
 [E,,E,][G,,G,] [A,,A,][^A,,^A,]!mf! [B,,^D,F,B,] z [F,B,^DF] z | z8 | %65
 [E,G,A,C] z [C,E,A,] z [B,,^D,F,]2 .[^C,,^C,].[^D,,D,] | %66
 .[E,,E,].[F,,F,].[G,,G,].[^G,,^G,] .[A,,A,].[B,,B,].[C,C].[B,,B,] | %67
 .[A,,A,].[G,,G,].[F,,F,].[E,,E,] .[^D,,^D,].[^C,,^C,].[B,,,B,,] z | z8 | %69
 [E,G,A,C] z [C,E,A,] z [B,,^D,F,]2{/=D,} [F,,B,,^D,] z | %70
!<(!{/^D,} [B,,E,] z{/^A,} [E,B,] z[K:treble]{/^D} [=A,E] z!<)!!mf!{/^G} [EA] z | %71
[K:bass] .[F,F].[E,E].[D,D].[C,C] .[B,,B,].[A,,A,].[G,,G,].[F,,F,] | %72
 [D,G,] z (3[D,G,][D,G,][D,G,] E, z E, z | [B,,F,] z [D,G,] z [B,,E,]4 | %74
 [D,G,] z (3[D,G,][D,G,][D,G,] E, z E, z | [B,,F,] z [D,G,] z [B,,E,]4 | %76
!mp! [A,,,A,,][^G,,,^G,,][A,,,A,,][B,,,B,,] [C,,C,][^C,,^C,][D,,D,][F,,,F,,] | %77
 [G,,,G,,][F,,,F,,][G,,,G,,][A,,,A,,] [^A,,,^A,,][B,,,B,,][C,,C,][E,,,E,,] | %78
!<(! [A,,,A,,][^A,,,^A,,][B,,,B,,][C,,C,] [^C,,^C,][^D,,^D,][E,,E,][G,,G,]!<)! | %79
!mf! [A,,A,][B,,B,][C,C][^C,^C] [D,D] z [A,DFA] z | [D,G,] z (3[D,G,][D,G,][D,G,] E, z E, z | %81
 [B,,F,] z [D,G,] z [B,,E,]4 | [D,G,] z (3[D,G,][D,G,][D,G,] E, z E, z | %83
 [B,,F,] z [D,G,] z [B,,E,]4 | %84
!mp! [A,,,A,,][^G,,,^G,,] [A,,,A,,][B,,,B,,] [C,,C,][^C,,^C,] [D,,D,][=C,,=C,] | %85
 [B,,,B,,][^A,,,^A,,] [B,,,B,,][C,,C,] [D,,D,][^D,,^D,] [E,,E,][=D,,=D,] | %86
"_cresc." [C,,C,][B,,,B,,] [A,,,A,,][C,,C,] [D,,D,][E,,E,] [F,,F,][D,,D,] | %87
 [B,,,B,,][B,,B,] [A,,A,][D,,D,]!mf! [DG] z!ff! [G,,B,,D,G,] z |] %88
V:3
 z8 | z8 | z8 | z8 | z8 | z8 | z8 | z8 | z8 | z8 | z8 | z8 | z8 | z8 | z8 | z8 | z8 | z8 | z8 | %19
 z8 | z8 | z8 | z8 | z8 | z8 | z8 | z8 | z8 | z8 | z8 | z8 | z8 | z8 | z8 | z8 | z8 | z8 | z8 | %38
 z8 | z8 ||!mp! [E,G,E]6 ([D,D]2 | [^C,^C]2 [=C,=C]2 [B,,B,]2 [A,,A,]2) |[K:treble] [Ece]8 | %43
 (A4 [EB])B z2 |[K:bass] [E,G,E]6 ([D,D]2 | [^C,^C]2 [=C,=C]2 [B,,B,]2 [A,,A,]2) | %46
[K:treble] [Ece]8 | (A4 [EB])B z2 | %48
[K:bass]!mf! (G,,/A,,/B,,/C,/) (E,/F,/G,/A,/)[K:treble] (^C/D/E/F/) (B/^c/d/e/) | %49
 (^g/^a/b/^c'/) (e'/f'/g'/a'/)!>(! (b'/g'/e'/b/ =g/e/B/!>)!!p!G/) | %50
[K:bass] (G,,/A,,/B,,/C,/) (E,/F,/G,/A,/)[K:treble] (^C/D/E/F/) (B/^c/d/e/) | %51
 (^g/^a/b/^c'/) (e'/f'/g'/a'/)!>(! b'/g'/e'/b/ =g/e/B/!>)!!pp!G/ | z8 | z8 | z8 | z8 | %56
[K:bass] (G,,/A,,/B,,/C,/) (E,/F,/G,/A,/)[K:treble] (^C/D/E/F/) (B/^c/d/e/) | %57
 (^g/^a/b/^c'/) (e'/f'/g'/a'/)!>(! (b'/g'/e'/b/ =g/e/B/!>)!!p!G/) | %58
[K:bass] (G,,/A,,/B,,/C,/) (E,/F,/G,/A,/)[K:treble] (^C/D/E/F/) (B/^c/d/e/) | %59
 (^g/^a/b/^c'/) (e'/f'/g'/a'/)!>(! b'/g'/e'/b/ =g/e/B/!>)!!pp!G/ |!mf! z8 | z8 | G2 A4 B2- | %63
 B2 c2 F z z2 | z8 | z8 | z8 | z8 | z8 | z8 | z8 | z8 | %72
[K:bass]!mf! (G,,/A,,/B,,/C,/) (E,/F,/G,/A,/)[K:treble] (^C/D/E/F/) (B/^c/d/e/) | %73
 (^g/^a/b/^c'/) (e'/f'/g'/a'/)!>(! (b'/g'/e'/b/ =g/e/B/!>)!!p!G/) | %74
[K:bass] (G,,/A,,/B,,/C,/) (E,/F,/G,/A,/)[K:treble] (^C/D/E/F/) (B/^c/d/e/) | %75
 (^g/^a/b/^c'/) (e'/f'/g'/a'/)!>(! b'/g'/e'/b/ =g/e/B/!>)!!pp!G/ | z8 | z8 | z8 | z8 | %80
[K:bass] (G,,/A,,/B,,/C,/) (E,/F,/G,/A,/)[K:treble] (^C/D/E/F/) (B/^c/d/e/) | %81
 (^g/^a/b/^c'/) (e'/f'/g'/a'/)!>(! (b'/g'/e'/b/ =g/e/B/!>)!!p!G/) | %82
[K:bass] (G,,/A,,/B,,/C,/) (E,/F,/G,/A,/)[K:treble] (^C/D/E/F/) (B/^c/d/e/) | %83
 (^g/^a/b/^c'/) (e'/f'/g'/a'/)!>(! b'/g'/e'/b/ =g/e/B/!>)!!pp!G/ |!mf! z8 | z8 | G2 A6 | %87
 d2 c2 B z z2 |] %88
V:4
 x8 | x8 | x8 | x8 | (E6 A,2) | (D6 G,2) | (C2 F,) z B,2- B, z | x8 | x8 | x8 | x8 | x8 | %12
 (E6 A,2) | (F6 B,2) | G2 A4 B2- | B2 (c2 F) z z2 | x8 | x8 | x8 | x8 | x8 | x8 | x8 | %23
[K:treble] x8 | x8 | x8 | x8 | x8 | (E6 A,2) | (D6 G,2) | (C2 F,) z B,2- B, z | x8 | x8 | x8 | x8 | %35
 x8 | (E6 A,2) | (F6 B,2) | G2 A6 | c2 B2 x4 || x8 | x8 | x8 | x8 | x8 | x8 | x8 | x8 | x8 | x8 | %50
 x8 | x8 | (e6 A2) | (d6 G2) | (c2 F2) B4 | e4 f x3 | x8 | x8 | x8 | x8 | (e6 A2) | (f6 B2) | x8 | %63
 x8 | x8 | x8 | x8 | x8 | x8 | x8 | x8 |[K:treble] x8 | x8 | x8 | x8 | x8 | (e6 A2) | (d6 G2) | %78
 (c2 F2) B4 | e4 f x3 | x8 | x8 | x8 | x8 | (e6 A2) | (f6 B2) | x8 | x8 |] %88
V:5
 x8 | x8 | x8 | x8 | x8 | x8 | x8 | E4 z4 | x8 | x8 | x8 | x8 | x8 | x8 | x8 | x8 | x8 | %17
 x5!mp! .B,, x2 | x8 | x8 | x8 | x8 | x4[K:treble] x4 |[K:bass] x8 | x8 | x8 | x8 | x8 | x8 | x8 | %30
 x8 | E4 x4 | x8 | x8 | x8 | x8 | x8 | x8 | x8 | x8 || x8 | x8 | x8 | x8 | x8 | x8 | x8 | x8 | %48
[K:bass] x8 | x8 | x8 | x8 | x8 | x8 | x8 | x8 | x8 | x8 | x8 | x8 | x8 | x8 | x8 | x8 | x8 | %65
 x5!mp! .B,, x2 | x8 | x8 | x8 | x8 | x4[K:treble] x4 |[K:bass] x8 | x8 | x8 | x8 | x8 | x8 | x8 | %78
 x8 | x8 | x8 | x8 | x8 | x8 | x8 | x8 | x8 | x8 |] %88
V:6
 x8 | x8 | x8 | x8 | x8 | x8 | x8 | x8 | x8 | x8 | x8 | x8 | x8 | x8 | x8 | x8 | x8 | x8 | x8 | %19
 x8 | x8 | x8 | x8 | x8 | x8 | x8 | x8 | x8 | x8 | x8 | x8 | x8 | x8 | x8 | x8 | x8 | x8 | x8 | %38
 x8 | x8 || x8 | x8 |[K:treble] [Ee]6 [Dd]2 | [^C^c]2 [=C=c]2 B,E x2 |[K:bass] x8 | x8 | %46
[K:treble] [Ee]6 [Dd]2 | [^C^c]2 [=C=c]2 B,E x2 |[K:bass] x4[K:treble] x4 | x8 | %50
[K:bass] x4[K:treble] x4 | x8 | x8 | x8 | x8 | x8 |[K:bass] x4[K:treble] x4 | x8 | %58
[K:bass] x4[K:treble] x4 | x8 | x8 | x8 | x8 | x8 | x8 | x8 | x8 | x8 | x8 | x8 | x8 | x8 | %72
[K:bass] x4[K:treble] x4 | x8 |[K:bass] x4[K:treble] x4 | x8 | x8 | x8 | x8 | x8 | %80
[K:bass] x4[K:treble] x4 | x8 |[K:bass] x4[K:treble] x4 | x8 | x8 | x8 | x8 | x8 |] %88

